!!!COM: Scarlatti, Domenico
!!!CDT: 1685///-1757///
!!!OTL: Sonata in G Major, K.434, L.343
!!!SCT: K. 434
!!!SCT: L. 343
**kern	**kern	**dynam
*staff2	*staff1	*staff1/2
*Icemba	*Icemba	*Icemba
*>[A,A,B,B]	*>[A,A,B,B]	*>[A,A,B,B]
*>norep[A,B]	*>norep[A,B]	*>norep[A,B]
*>A	*>A	*>A
*clefF4	*clefG2	*clefG2
*k[b-]	*k[b-]	*k[b-]
*d:	*d:	*d:
*M3/4	*M3/4	*M3/4
*MM132	*MM132	*MM132
=1-	=1-	=1-
2.r	(2.dd\	p
=2	=2	=2
2.r	2.aa\	<
=3	=3	=3
2.r	8gg\L	.
.	8ee\	.
.	8ff\	.
.	8cc#\	.
.	8dd\	.
.	8a\J	.
=4	=4	=4
2.r	8b-/L	.
.	8f/	.
.	8g/	.
.	8e/	.
.	8f/	.
.	8g/J	.
=5	=5	=5
(2.A\	8a\L	.
.	8ee\	.
.	8a\	.
.	8g\	.
.	8f\	.
.	8e\J	.
=6	=6	=6
2.d\)	8f\L	.
.	8dd\	.
.	8a\	.
.	8bn\	.
.	8cc\	.
.	8dd\J	.
=7	=7	=7
8c\L	4ee'\)	.
8A\	.	.
8B-\	(4.dd\	.
8G\	.	.
8A\	.	.
8E\J	8cc#\	.
=8	=8	=8
8F\L	8dd\L	<
8C#\	8ee\J	.
8D\	4.ff\	.
8AA\J	.	.
4BB-/	.	.
.	[8gg\	.
=9	=9	=9
4AA/	8gg\L]	.
.	8aa\	.
8A\L	8dd\	.
8G\J	8cc#\	.
4F\	8dd\	.
.	8ff\J	.
=10	=10	=10
4G\	8ee\L	.
.	8b-\ 8gg\	.
4A\	8a\ 8ff\	.
.	8g\ 8ee\	.
4AA/	8f\ 8dd\	.
.	8e\ 8cc#\J	.
=11	=11	=11
8r	4d\ 4dd\)	.
(8D\L	.	.
8C#\	4r	.
8D\	.	.
8B-\	4r	.
8A\J	.	.
=12	=12	=12
8G\L	8r	.
8F\	(8dd\L	.
8E\	8cc#\	.
8D\	8dd\	.
8C#\	8bb-\	.
8D\J	8aa\J	.
=13	=13	=13
4AA/)	8gg\L	.
.	8ff\	.
4A\	8ee\	.
.	8dd\	.
(8a\L	8cc#\	.
8g\J	8bn\J	.
=14	=14	=14
8f\L	8a\L)	.
8e\	(8gg\	.
8d\	8ff\	.
8cn\	8ee\	.
8Bn\	8dd\	.
8A\J	8cc\J	.
=15	=15	=15
8G\L	8bn\L)	.
8F\	(8aa\	.
8E\	8gg\	.
8D\	8ff\	.
8C\	8ee\	.
8BBn\J)	8dd\J	.
=16	=16	=16
8r	4cc\ 4ee\)	p
(8C\L	.	.
8BBn\	4r	.
8C\	.	.
8A\	4r	.
8G\J	.	.
=17	=17	=17
8F/L	8r	.
8E/	(8cc\L	.
8D/	8bn\	.
8C/	8cc\	.
8BBn/	8aa\	.
8AA/J	8gg\J	.
=18	=18	=18
4GG/)	8ff\L	.
.	8ee\	.
4G\	8dd\	.
.	8cc\	.
(8g\L	8bn\	.
8f\J	8a\J	.
=19	=19	=19
8e\L	8g/L	>
8d\	8f/	.
8c\	8e/	.
8Bn\	8d/	.
8A\	8c/	.
8G#\J	8Bn/J	.
=20	=20	=20
*^	*^	*
[2A/	4.A\	4r	(8c\L)	.
.	.	.	8d\J	.
.	.	4r	4.e\	.
.	8Gn\	.	.	.
8A/L]	4F\	[4a^/	.	.
8Bn/J)	.	.	8d\	.
=21	=21	=21	=21	=21
8E/L	4E\	4.a/]	4e\)	.
8c/	.	.	.	.
8D/	4D\	.	4r	.
8Bn/	.	8g#/	.	.
8C/	4C\	4a/	4r	.
8A/J	.	.	.	.
*	*	*v	*v	*
=22	=22	=22	=22
8BBn/L	4BBn\	8a/L	.
8G#/	.	8bn/J	.
8AA/	4AA\	4.cc\	.
8F/	.	.	.
8GG#/	4GG#\	.	.
8D/J	.	[8dd\	.
*v	*v	*	*
=23	=23	=23
4EE/	8dd\L]	mf
.	8ee\	.
8E\L	8a\	.
8D\J	8g#\	.
4C/	8a\	.
.	8cc\J	.
=24	=24	=24
4D\	8bn\L	>
.	8dd\	.
4E\	8cc\	.
.	8b\	.
4EE/	8a\	.
.	8g#\J	.
=25	=25	=25
8r	4a/	p
(8A\L	.	.
8G#\	4r	.
8A\	.	.
8f\	4r	.
8e\J	.	.
=26	=26	=26
8d\L	8r	.
8c\	(8a\L	<
8Bn\	8g#\	.
8A\	8a\	.
8G#\	8bn\	.
8A\J	8cc\J)	.
=27	=27	=27
!	!(ddq/	!.
8E\L)	(8cc\L)	>
(8A\	8bn\J)	.
8G#\	4r	.
8Bn\	.	.
8f\	4r	.
8e\J	.	.
=28	=28	=28
8d\L	8r	.
8c\	(8dd\L	.
8Bn\	8g#\	.
8A\	8a\	.
8G#\	8bn\	.
8A\J	8cc\J	.
=29	=29	=29
8E\L)	4bn\)	<
(8e\	.	.
8f\	8r	.
8e\	(8ee\L	.
8d\	8ff\	.
8c\J	8ee\J	.
=30	=30	=30
*	*^	*
8Bn\L	8dd/L	4.dd\	.
8A\	8aa/J	.	.
8G#\	[2bbn/)	.	f
8F#\	.	(8dd\L	.
8G#\	.	8ee\	.
8E\J	.	8dd\J	.
=31	=31	=31	=31
4.A\	8bb/L]	[2.cc\	.
.	8ccc/	.	.
!	!bbnq/	!.	!.
.	8aa/	.	.
8Bn\L	8gg#/	.	.
8c\	8aa/	.	.
8A\J	8ee/J	.	.
=32	=32	=32	=32
4d\	4ff/	8cc\L]	.
.	.	8dd\	.
4e\	8ee/L	8cc\	.
.	8dd/	8bn\	>
4E\)	8cc/	8a\	.
.	8b/J	8g#\J	.
=33	=33	=33	=33
8r	4a/	4a\)	p
(8A\L	.	.	.
8G#\	4r	4r	.
8A\	.	.	.
8f\	4r	4r	.
8e\J	.	.	.
*	*v	*v	*
=34	=34	=34
8d\L	8r	.
8c\	(8a\L	<
8Bn\	8g#\	.
8A\	8a\	.
8G#\	8bn\	.
8A\J	8cc\J)	.
=35	=35	=35
!	!ddq/	!.
8E\L)	8cc\L	>
(8A\	8bn\J	.
8G#\	4r	.
8Bn\	.	.
8f\	4r	.
8e\J	.	.
=36	=36	=36
8d\L	8r	.
8c\	(8dd\L	.
8Bn\	8g#\	.
8A\	8a\	.
8G#\	8bn\	.
8A\J	8cc\J	.
=37	=37	=37
8E\L)	4bn\)	<
(8e\	.	.
8f\	8r	.
8e\	(8ee\L	.
8d\	8ff\	.
8c\J	8ee\J	.
=38	=38	=38
*	*^	*
8Bn\L	8dd/L	4.dd\	.
8A\	8aa/J	.	.
8G#\	[2bbn/)	.	f
8F#\	.	(8dd\L	.
8G#\	.	8ee\	.
8E\J	.	8dd\J	.
=39	=39	=39	=39
4.A\	8bb/L]	[2.cc\	.
.	8ccc/	.	.
!	!bbnq/	!.	!.
.	8aa/	.	.
8Bn\	8gg#/	.	.
4c\	8aa/	.	.
.	8ee/J	.	.
=40	=40	=40	=40
4d\	4ff/	8cc\L]	.
.	.	8dd\	.
4e\	8ee/L	8cc\	>
.	8dd/	8bn\	.
4E\	8cc/	8a\	.
.	8b/J	8g#\J)	.
=41	=41	=41	=41
4.A\)	8r	8r	.
.	([8ee/	8r	f
.	4ccc/	2ee\_	.
(8a\L	.	.	.
8gn\	[4bb-/	.	.
8e\J	.	.	.
=42	=42	=42	=42
4.f\	8bb-/L]	4.ee\]	.
.	8gg#/J	.	.
.	4.aa/	.	.
8d\L	.	8dd\L	.
8e\	.	8cc\	.
8E\J	8gg#/	8bn\J	.
=43	=43	=43	=43
4.A\)	8aa/L)	8cc\L	.
.	(8bbn/J	8dd\J	p
.	4ccc/	[2ee\	.
(8a\L	.	.	.
8gn\	[4bb/	.	.
8e\J	.	.	.
=44	=44	=44	=44
4.f\	8bb/L]	4.ee\]	.
.	8gg#/J	.	.
.	4.aa/	.	.
8d\L	.	8dd\L	.
8e\	.	8cc\	.
8E\J	8gg#/)	8bn\J	.
=45	=45	=45	=45
4.A\)	([2.ee/	8cc\L	p
.	.	8bn\	.
.	.	8a\	.
(8Bn\L	.	8gn\	.
8c\	.	8f\	.
8A\J	.	8e\J	.
=46	=46	=46	=46
4D\	8ee/L]	4f\	<
.	8dd/	.	.
4E\	8e/ 8cc/	4r	.
.	8d/ 8bn/	.	.
4EE/)	8c/ 8a/	4r	.
.	8Bn/ 8g#/J)	.	.
=47	=47	=47	=47
(4.A\	([2.ee/	8cc\L	.
.	.	8bn\	.
.	.	8a\	.
8Bn\L	.	8gn\	.
8c\	.	8f\	.
8A\J	.	8e\J	.
=48	=48	=48	=48
4D\	8ee/L]	4f\	.
.	8dd/	.	.
4E\	8e/ 8cc/	4r	.
.	8d/ 8bn/	.	.
4EE/	8c/ 8a/	4r	.
.	8Bn/ 8g#/J)	.	.
*	*v	*v	*
=49	=49	=49
!	!g#q/	!.
2.AA/)	2.A/ 2.a/	f
=50:|!|:	=50:|!|:	=50:|!|:
*>B	*>B	*>B
*	*^	*
2.r	4.cc/	(8cc\L	.
.	.	8c\	.
.	.	8d\	.
.	4b-/	8e\J	.
.	.	4f\	.
.	8a/	.	.
=51	=51	=51	=51
*^	*	*	*
4.c/	(8c\L	4g/	4e\)	.
.	8C\	.	.	.
.	8D\	4r	4r	.
4B-/	8E\J	.	.	.
.	4F\	4r	4r	.
[8A/	.	.	.	.
*	*	*v	*v	*
=52	=52	=52	=52
4A/]	2.C\	8r	.
.	.	(8g/L	p
4G/	.	8e/	.
.	.	8f#/	.
[4c/	.	8g/	.
.	.	8a/J	.
=53	=53	=53	=53
8c/L]	2.D\)	8f#/L	<
(8c/	.	8a/	.
8B-/	.	8g/	.
8A/	.	8f#/	.
8B-/	.	8g/	.
8c/J	.	8a/J	.
*v	*v	*	*
=54	=54	=54
*	*^	*
4D\ 4A\)	4.dd/	(8dd\L)	mf
.	.	8d\	.
4r	.	8e\	.
.	8cc/	8f#\J	.
4r	4b-/	4g\	.
=55	=55	=55	=55
*^	*	*	*
4.d/	(8d\L	4a/)	4f#\	.
.	8D\	.	.	.
.	8E\	4r	4r	.
4c/	8F#\J	.	.	.
.	4G\	4r	4r	.
[8B-/	.	.	.	.
*	*	*v	*v	*
=56	=56	=56	=56
4B-/]	2.D\	8r	.
.	.	(8a/L	p
4A/	.	8f#/	.
.	.	8g#/	.
[4d/)	.	8a/	.
.	.	8bn/J	.
=57	=57	=57	=57
8d/L]	2.E\	8g#/L	<
(8d/	.	8bn/	.
8c/	.	8a/	.
8Bn/	.	8g#/	.
8c/	.	8a/	.
8d/J	.	8b/J	.
*v	*v	*	*
=58	=58	=58
*	*^	*
4E\ 4Bn\)	4.ee/	(8ee\L)	mf
.	.	8e\	.
4r	.	8f#\	.
.	4dd/	8g#\J	.
4r	.	4a\	.
.	8cc/	.	.
=59	=59	=59	=59
*^	*	*	*
4.e/	(8e\L	4bn/)	4g#\	.
.	8E\	.	.	.
.	8F#\	4r	4r	.
4d/	8G#\J	.	.	.
.	4A\	4r	4r	.
[8c/	.	.	.	.
*	*	*v	*v	*
=60	=60	=60	=60
4c/]	2.E\)	8r	.
.	.	(8bn/L	p
4Bn/	.	8g#/	<
.	.	8a/	.
8e/L	.	8b/	.
8d/J	.	8g#/J	.
*v	*v	*	*
=61	=61	=61
4c\	8a\L	.
.	8ee\	.
4Bn\	8dd\	.
.	8bn\J	.
8A\L	4cc\	.
(8a\J	.	.
=62	=62	=62
*	*^	*
8g\L	4r	4bn\	.
8e\J	.	.	.
4f\	8r	4.a\)	.
.	(8aa/	.	f
4e\	8gg/L	.	.
.	8ee/J	8cc#\	.
=63	=63	=63	=63
4d\	4ff/)	8dd\L	.
.	.	8f\	.
4cn\	(4ee/	8g\	.
.	.	8a\	.
4B-\	4dd/	8b-\	.
.	.	8d\J	.
=64	=64	=64	=64
4A\	4cc/	8e\L	>
.	.	8f#\	.
8G\L	4.b-/	8g\	.
8E\	.	8c#\J	.
8F\	.	4d\	.
8D\J	8a/	.	.
*	*v	*v	*
=65	=65	=65
8E/L	8g/L	.
8C#/	8e/	.
8D/	8f/	.
8GG/J	8e/ 8g/	.
4AA/)	8d/ 8f/	.
.	8c#/ 8e/J	.
*clefG2	*	*
=66	=66	=66
8r	8d/)	p
(8d/L	8r	.
8c#/	4r	.
8d/	.	.
8b-/	4r	.
8a/J	.	.
=67	=67	=67
8g/L	8r	.
8f/	(8dd\L	<
8e/	8cc#\	.
8d/	8dd\	.
8c#/	8ee\	.
8d/J	8ff\J)	.
=68	=68	=68
!	!ggq/	!.
8A/L)	(8ff\L	>
(8d/	8ee\J)	.
8c#/	4r	.
8e/	.	.
8b-/	4r	.
8a/J	.	.
=69	=69	=69
8g/L	8r	.
8f/	(8gg\L	<
8e/	8cc#\	.
8d/	8dd\	.
8c#/	8ee\	.
8d/J	8ff\J)	.
=70	=70	=70
!	!ffq/	!.
8A/L)	[2.ee\	.
(8A/ 8a/	.	.
8B-/ 8b-/	.	.
8A/ 8a/	.	.
8G/ 8g/	.	.
8F/ 8f/J	.	.
*clefF4	*	*
=71	=71	=71
8E\ 8e\L	4ee\]	.
8D\ 8d\	.	.
!	!ffq/	!.
8C#\ 8c#\	[2ee\	.
8BB-\ 8B-\	.	.
8AA\ 8A\	.	.
8GG\ 8G\J	.	.
=72	=72	=72
8FF/ 8F/L	4ee\]	.
8EE/ 8E/	.	.
!	!(ggq/	!.
8DD/ 8D/	[2ff\)	.
8CC/ 8C/	.	.
8BBB-/ 8BB-/	.	.
8AAA/ 8AA/J	.	.
=73	=73	=73
4GGG/) 4GG/	8ff\L]	f
.	8b-\ (8gg\	.
2AAA/ 2AA/	8a\ 8ff\	.
.	8g\ 8ee\	.
.	8f\ 8dd\	.
.	8e\ 8cc#\J)	.
*clefG2	*	*
=74	=74	=74
!	!ffq/	!.
8r	([2.ee\	f
(8A/ 8a/L	.	.
8B-/ 8b-/	.	.
8A/ 8a/	.	.
8G/ 8g/	.	.
8F/ 8f/J	.	.
*clefF4	*	*
=75	=75	=75
8E\ 8e\L	8ee\L]	.
8D\ 8d\	8gg\J)	.
!	!ffq/	!.
8C#\ 8c#\	([2ee\	.
8BB-\ 8B-\	.	.
8AA\ 8A\	.	.
8GG\ 8G\J	.	.
=76	=76	=76
8FF/ 8F/L	8ee\L]	.
8EE/ 8E/	8aa\J)	.
!	!ggq/	!.
8DD/ 8D/	[2ff\	.
8CC/ 8C/	.	.
8BBB-/ 8BB-/	.	.
8AAA/ 8AA/J	.	.
=77	=77	=77
4GGG/) 4GG/	8ff\L]	f
.	8b-\ (8gg\	.
2AAA/ 2AA/	8a\ 8ff\	.
.	8g\ 8ee\	.
.	8f\ 8dd\	.
.	8e\ 8cc#\J)	.
=78	=78	=78
*	*^	*
(4.D\	8r	8r	.
.	(8a/	8r	.
.	4ff/	[2a\	.
8d\L	.	.	.
8cn\	[4ee/	.	.
8A\J	.	.	.
=79	=79	=79	=79
4.B-\	8ee/L]	4.a\]	.
.	8cc#/J	.	.
.	4.dd/	.	.
8G\L	.	8g\L	.
8A\	.	8f\	.
8AA\J	8cc#/	8e\J	.
=80	=80	=80	=80
4.D\)	8dd/L)	8f\L	.
.	8ee/J	(8g\J	p
.	4ff/	[2a\)	.
(8d\L	.	.	.
8cn\	[4ee/	.	.
8A\J	.	.	.
=81	=81	=81	=81
4.B-\	8ee/L]	4.a\]	.
.	8cc#/J	.	.
.	4.dd/	.	.
8G\L	.	(8g\L	.
8A\	.	8f\	.
8AA\J)	8cc#/	8e\J	.
*	*v	*v	*
=82	=82	=82
4.D\ (4.d\	8f\) 8dd\L	<
.	8g\ (8ee\J	.
.	4.a\ 4.ff\)	.
8Cn'\ 8cn'\L	.	.
8BB-'\ 8B-'\	.	.
8AA'\ 8A'\J	8a\ (8ff#\	.
=83	=83	=83
4.GG/ 4.G/	8b-\ 8gg\L	.
.	8cc\ 8aa\J	.
.	4.dd\ 4.bb-\)	.
8FF/ 8F/	.	.
4EE/ 4E/	.	.
.	8ee\ (8ccc#\	.
=84	=84	=84
4.DD/ 4.D/)	8ff\ 8ddd\L	f
.	8ee\ 8ccc#\J	.
.	[2ff\ [2ddd\)	.
(8Cn/L	.	.
8BB-/	.	.
8AA/J	.	.
=85	=85	=85
4GG/	8ff\] 8ddd\L]	.
.	8gg\ (8bb-\	.
2AA/)	8ff\ 8aa\	.
.	8ee\ 8gg\	.
.	8dd\ 8ff\	.
.	8cc#\ 8ee\J	.
=86	=86	=86
4.D\ (4.d\	8f\ 8dd\L	.
.	8g\ (8ee\J)	<
.	4.a\ 4.ff\)	.
8Cn\ 8cn\L	.	.
8BB-\ 8B-\	.	.
8AA\ 8A\J	8a\ (8ff#\	.
=87	=87	=87
4.GG\ 4.G\	8b-\ 8gg\L	.
.	8cc\ 8aa\J	.
.	4.dd\ 4.bb-\)	.
8FF/ 8F/	.	.
4EE/ 4E/	.	.
.	8ee\ (8ccc#\	.
=88	=88	=88
4.DD/ 4.D/)	8ff\ 8ddd\L	f
.	8ee\ 8ccc#\J	.
.	[2ff\ [2ddd\)	.
(8Cn/L	.	.
8BB-/	.	.
8AA/J	.	.
=89	=89	=89
4GG/	8ff\] 8ddd\L]	.
.	8gg\ (8bb-\	>
2AA/	8ff\ 8aa\	.
.	8ee\ 8gg\	.
.	8dd\ 8ff\	.
.	8cc#\ 8ee\J	.
=90	=90	=90
*	*^	*
4.D\)	8ff/L	8a\L	mf
.	8ee/J	8g\	.
.	4.dd/)	8f\	.
(8E\L	.	8e\J	.
8F\	.	[4d\	.
8D\J	([8ccn/	.	.
*	*v	*v	*
=91	=91	=91
8G\L	8d/] 8cc/L]	.
8E\J	8g/ 8b-/	>
4A\	8f/ 8a/	.
.	8e/ 8g/	.
4AA/	8d/ 8f/	.
.	8c#/ 8e/J)	.
=92	=92	=92
*	*^	*
4.D\)	8ff/L	(8a\L	p
.	8ee/J	8g\	.
.	4.dd/	8f\	.
(8E\L	.	8e\J	.
8F\	.	[4d\)	.
8D\J	([8ccn/	.	.
*	*v	*v	*
=93	=93	=93
8G\L	8d/] 8cc/L]	.
8E\J	8g/ 8b-/	.
4A\	8f/ 8a/	.
.	8e/ 8g/	.
4AA/	8d/ 8f/	.
.	8c#/ 8e/J	.
=94	=94	=94
2.DD/ 2.D/)	2.d/)	.
==:|!	==:|!	==:|!
*-	*-	*-
!!!ENC: Craig Stuart Sapp
!!!END: 2004/10/31/
